lib/flags/mo-macao.svg

<svg xmlns="http://www.w3.org/2000/svg" fill="none" aria-hidden="true" viewBox="0 0 42 30"><g id="Country=MO - Macao, Size=sm (36x24)" filter="url(#filter0_dd_91_26442)"><g clip-path="url(#clip0_91_26442)"><g id="flag"><mask id="mask0_91_26442" width="36" height="24" x="3" y="2" maskUnits="userSpaceOnUse" style="mask-type:alpha"><rect id="mask" width="36" height="24" x="3" y="2" fill="white"/></mask><g mask="url(#mask0_91_26442)"><g id="contents"><path id="background" fill="#1C9975" fill-rule="evenodd" d="M3 2V26H39V2H3Z" clip-rule="evenodd"/><mask id="mask1_91_26442" width="36" height="24" x="3" y="2" maskUnits="userSpaceOnUse" style="mask-type:alpha"><path id="background_2" fill="white" fill-rule="evenodd" d="M3 2V26H39V2H3Z" clip-rule="evenodd"/></mask><g mask="url(#mask1_91_26442)"><g id="mark 2"><path id="Star 5" fill="#FECA00" fill-rule="evenodd" d="M21.0245 8.85382L19.1865 9.8401L19.6057 7.91548L18.0752 6.4751L20.1476 6.39721L21.0245 4.6001L21.9013 6.39721H23.9702L22.4432 7.91548L22.9029 9.8401L21.0245 8.85382Z" clip-rule="evenodd"/><path id="Star 5_2" fill="#FECA00" fill-rule="evenodd" d="M15.8055 9.58476L14.6691 10.1946L14.9283 9.00456L13.9819 8.11394L15.2634 8.06578L15.8055 6.95459L16.3477 8.06578H17.6269L16.6827 9.00456L16.967 10.1946L15.8055 9.58476Z" clip-rule="evenodd"/><path id="Star 5_3" fill="#FECA00" fill-rule="evenodd" d="M26.1537 9.58476L25.0172 10.1946L25.2764 9.00456L24.3301 8.11394L25.6115 8.06578L26.1537 6.95459L26.6958 8.06578H27.9751L27.0309 9.00456L27.3151 10.1946L26.1537 9.58476Z" clip-rule="evenodd"/><path id="Star 5_4" fill="#FECA00" fill-rule="evenodd" d="M12.8623 11.6106L11.9503 12.1L12.1584 11.145L11.3989 10.4303L12.4272 10.3917L12.8623 9.5L13.2974 10.3917H14.3239L13.5662 11.145L13.7943 12.1L12.8623 11.6106Z" clip-rule="evenodd"/><path id="Star 5_5" fill="#FECA00" fill-rule="evenodd" d="M29.5059 11.6106L28.5939 12.1L28.8019 11.145L28.0425 10.4303L29.0708 10.3917L29.5059 9.5L29.9409 10.3917H30.9675L30.2098 11.145L30.4379 12.1L29.5059 11.6106Z" clip-rule="evenodd"/></g><g id="mark"><g id="stripes"><mask id="mask2_91_26442" width="18" height="16" x="12" y="8" maskUnits="userSpaceOnUse" style="mask-type:alpha"><path id="Oval 29" fill="white" fill-rule="evenodd" d="M21 24C25.9706 24 30 20.4183 30 16C30 11.5817 25.9706 8 21 8C16.0294 8 12 11.5817 12 16C12 20.4183 16.0294 24 21 24Z" clip-rule="evenodd"/></mask><g mask="url(#mask2_91_26442)"><path id="Rectangle 35" fill="#F7FCFF" fill-rule="evenodd" d="M17.2661 23.064H24.7342V24.1363H17.2661V23.064Z" clip-rule="evenodd"/><path id="Rectangle 35_2" fill="#F7FCFF" fill-rule="evenodd" d="M14.2021 21.46H28.5639V22.4429H14.2021V21.46Z" clip-rule="evenodd"/><path id="Path 132" fill="#F7FCFF" d="M17.198 21.0207H12.8052V20.0207L17.1901 20.0208C18.7434 20.0013 19.8784 19.607 20.6357 18.8483L21.0131 18.4702L21.4343 18.8097C22.4457 19.6249 23.456 20.0207 24.4781 20.0207H29.3204V21.0207H24.4781C23.3039 21.0207 22.1704 20.6281 21.0864 19.8594C20.1265 20.6157 18.8231 21.0004 17.198 21.0207Z"/></g></g><path id="peddles" fill="#F7FCFF" fill-rule="evenodd" d="M21.0393 9.6079C21.0393 9.6079 19.117 11.2959 19.117 13.6125C19.117 14.1084 19.205 14.5768 19.3435 15.0069C18.724 13.7867 18.681 12.4635 19.2156 11.0202L18.488 10.8073C17.9443 12.2754 17.942 13.6557 18.4818 14.9349C17.3651 14.3369 16.0803 13.9351 14.7616 13.8055L14.6775 14.4822C15.83 14.5955 16.955 14.9371 17.9426 15.4428C17.6987 15.3554 17.4429 15.2793 17.1761 15.2188C14.7428 14.6667 12.3555 15.4495 12.3555 15.4495C12.3555 15.4495 13.7326 18.1957 16.3998 18.6007C16.5328 18.6209 16.6643 18.6366 16.7941 18.6482L16.7739 18.6483C15.5022 18.6483 14.3196 18.1861 13.2121 17.2472L12.6835 17.7398C13.9273 18.7945 15.2954 19.3291 16.7739 19.3291C18.2198 19.3291 19.5626 18.8178 20.7896 17.8087C20.9864 17.7031 21.1016 17.6274 21.1201 17.6152L21.1684 17.6517C21.1431 17.6903 21.1304 17.7113 21.1304 17.7113C21.1304 17.7113 21.2513 17.7764 21.4694 17.868C22.6809 18.7028 24.1968 19.3291 25.3961 19.3291C26.8745 19.3291 28.2426 18.7945 29.4865 17.7398L28.9578 17.2472C27.8504 18.1861 26.6678 18.6483 25.3961 18.6483C24.9315 18.6483 24.4762 18.582 24.0297 18.4484C24.655 18.4783 25.3439 18.4283 26.057 18.2345C28.6844 17.5205 29.7797 15.3608 29.7797 15.3608C29.7797 15.3608 28.3817 14.6903 26.6061 14.6828C27.0039 14.5916 27.4191 14.5247 27.852 14.4822L27.7678 13.8055C26.1025 13.9691 24.6617 14.4688 23.4531 15.3025C24.1598 13.9213 24.2145 12.4171 23.6183 10.8073L22.8907 11.0202C23.3778 12.3353 23.3854 13.5508 22.9142 14.6794C22.9949 14.3458 23.0425 13.9893 23.0425 13.6125C23.0425 11.1703 21.0393 9.6079 21.0393 9.6079ZM21.885 16.7555L21.8566 16.7919L21.8912 16.7552L21.885 16.7555ZM20.0269 16.5961L20.1023 16.5345C20.1708 16.6357 20.2392 16.731 20.306 16.8199C20.2193 16.7473 20.1262 16.6724 20.0269 16.5961Z" clip-rule="evenodd"/></g></g></g></g></g></g></g><defs><filter id="filter0_dd_91_26442" width="42" height="30" x="0" y="0" color-interpolation-filters="sRGB" filterUnits="userSpaceOnUse"><feFlood flood-opacity="0" result="BackgroundImageFix"/><feColorMatrix in="SourceAlpha" result="hardAlpha" values="0 0 0 0 0 0 0 0 0 0 0 0 0 0 0 0 0 0 127 0"/><feOffset dy="1"/><feGaussianBlur stdDeviation="1"/><feColorMatrix values="0 0 0 0 0.0627451 0 0 0 0 0.0941176 0 0 0 0 0.156863 0 0 0 0.06 0"/><feBlend in2="BackgroundImageFix" result="effect1_dropShadow_91_26442"/><feColorMatrix in="SourceAlpha" result="hardAlpha" values="0 0 0 0 0 0 0 0 0 0 0 0 0 0 0 0 0 0 127 0"/><feOffset dy="1"/><feGaussianBlur stdDeviation="1.5"/><feColorMatrix values="0 0 0 0 0.0627451 0 0 0 0 0.0941176 0 0 0 0 0.156863 0 0 0 0.1 0"/><feBlend in2="effect1_dropShadow_91_26442" result="effect2_dropShadow_91_26442"/><feBlend in="SourceGraphic" in2="effect2_dropShadow_91_26442" result="shape"/></filter><clipPath id="clip0_91_26442"><rect width="36" height="24" x="3" y="2" fill="white" rx="2"/></clipPath></defs></svg>

<svg xmlns="http://www.w3.org/2000/svg" fill="none" aria-hidden="true" viewBox="0 0 42 30"><g filter="url(#a)"><g clip-path="url(#b)"><mask id="c" width="36" height="24" x="3" y="2" maskUnits="userSpaceOnUse" style="mask-type:alpha"><path fill="#fff" d="M3 2h36v24H3z"/></mask><g mask="url(#c)"><path fill="#1C9975" fill-rule="evenodd" d="M3 2v24h36V2H3Z" clip-rule="evenodd"/><mask id="d" width="36" height="24" x="3" y="2" maskUnits="userSpaceOnUse" style="mask-type:alpha"><path fill="#fff" fill-rule="evenodd" d="M3 2v24h36V2H3Z" clip-rule="evenodd"/></mask><g mask="url(#d)"><path fill="#FECA00" fill-rule="evenodd" d="m21.024 8.854-1.838.986.42-1.925-1.53-1.44 2.072-.078.877-1.797.876 1.797h2.07l-1.528 1.518.46 1.925-1.878-.986Zm-5.218.731-1.137.61.26-1.19-.947-.891 1.281-.048.543-1.111.542 1.11h1.279l-.944.94.284 1.19-1.161-.61Zm10.348 0-1.137.61.26-1.19-.947-.891 1.282-.048.542-1.111.542 1.11h1.28l-.945.94.284 1.19-1.161-.61ZM12.862 11.61l-.912.49.208-.955-.76-.715 1.03-.038.434-.892.435.892h1.027l-.758.753.228.955-.932-.49Zm16.644 0-.912.49.208-.955-.76-.715 1.029-.038.435-.892.435.892h1.027l-.758.753.228.955-.932-.49Z" clip-rule="evenodd"/><mask id="e" width="18" height="16" x="12" y="8" maskUnits="userSpaceOnUse" style="mask-type:alpha"><path fill="#fff" fill-rule="evenodd" d="M21 24c4.97 0 9-3.582 9-8s-4.03-8-9-8-9 3.582-9 8 4.03 8 9 8Z" clip-rule="evenodd"/></mask><g fill="#F7FCFF" mask="url(#e)"><path fill-rule="evenodd" d="M17.266 23.064h7.468v1.072h-7.468v-1.072Zm-3.064-1.604h14.362v.983H14.202v-.983Z" clip-rule="evenodd"/><path d="M17.198 21.02h-4.393v-1h4.385c1.553-.019 2.688-.413 3.446-1.172l.377-.378.421.34c1.012.815 2.022 1.21 3.044 1.21h4.842v1h-4.842c-1.174 0-2.308-.392-3.392-1.16-.96.756-2.263 1.14-3.888 1.16Z"/></g><path fill="#F7FCFF" fill-rule="evenodd" d="M21.04 9.608s-1.923 1.688-1.923 4.005c0 .495.088.964.226 1.394-.619-1.22-.662-2.543-.127-3.987l-.728-.213c-.544 1.468-.546 2.849-.006 4.128-1.117-.598-2.402-1-3.72-1.13l-.085.677a9.207 9.207 0 0 1 3.266.96 6.597 6.597 0 0 0-.767-.223c-2.433-.552-4.82.23-4.82.23s1.377 2.747 4.044 3.152c.133.02.264.036.394.047h-.02c-1.272 0-2.454-.462-3.562-1.4l-.528.492c1.243 1.055 2.611 1.59 4.09 1.59 1.446 0 2.789-.512 4.016-1.521a4.5 4.5 0 0 0 .33-.194l.048.037-.038.06s.121.064.34.156c1.21.835 2.727 1.461 3.926 1.461 1.479 0 2.847-.535 4.09-1.59l-.528-.492c-1.108.94-2.29 1.401-3.562 1.401a4.74 4.74 0 0 1-1.366-.2c.625.03 1.314-.02 2.027-.213 2.627-.715 3.723-2.874 3.723-2.874s-1.398-.67-3.174-.678a9.9 9.9 0 0 1 1.246-.2l-.084-.678c-1.666.164-3.106.664-4.315 1.498.707-1.382.762-2.886.165-4.496l-.727.213c.487 1.315.494 2.53.023 3.66.08-.334.128-.69.128-1.067 0-2.443-2.003-4.005-2.003-4.005Zm.845 7.148-.028.036.034-.037h-.006Zm-1.858-.16.075-.061c.069.1.137.196.204.285a8.535 8.535 0 0 0-.28-.224Z" clip-rule="evenodd"/></g></g></g></g><defs><clipPath id="b"><rect width="36" height="24" x="3" y="2" fill="#fff" rx="2"/></clipPath><filter id="a" width="42" height="30" x="0" y="0" color-interpolation-filters="sRGB" filterUnits="userSpaceOnUse"><feFlood flood-opacity="0" result="BackgroundImageFix"/><feColorMatrix in="SourceAlpha" result="hardAlpha" values="0 0 0 0 0 0 0 0 0 0 0 0 0 0 0 0 0 0 127 0"/><feOffset dy="1"/><feGaussianBlur stdDeviation="1"/><feColorMatrix values="0 0 0 0 0.0627451 0 0 0 0 0.0941176 0 0 0 0 0.156863 0 0 0 0.06 0"/><feBlend in2="BackgroundImageFix" result="effect1_dropShadow_91_26442"/><feColorMatrix in="SourceAlpha" result="hardAlpha" values="0 0 0 0 0 0 0 0 0 0 0 0 0 0 0 0 0 0 127 0"/><feOffset dy="1"/><feGaussianBlur stdDeviation="1.5"/><feColorMatrix values="0 0 0 0 0.0627451 0 0 0 0 0.0941176 0 0 0 0 0.156863 0 0 0 0.1 0"/><feBlend in2="effect1_dropShadow_91_26442" result="effect2_dropShadow_91_26442"/><feBlend in="SourceGraphic" in2="effect2_dropShadow_91_26442" result="shape"/></filter></defs></svg>
